X:1
T:Hemsford, CM
T:Gerard Francis Cobb, 1889
T:Hemsford, CM
T:Public Domain
C:Gerard Francis Cobb, 1889
Z:Public Domain
%%score ( 1 2 ) ( 3 4 )
L:1/8
M:4/4
K:Eb
V:1 treble 
V:2 treble 
V:3 bass 
V:4 bass 
V:1
 [B,E]2 | [EG]2 [FB]2 [EG]2 (FE) | [EF]2 [DF]2 [EG]2 ([EG][F=A]) | [FB]2 [Ge]2 [Fd]2 [Ec]2 | %4
 [DB]6 (E[DF]) | [EG]2 [FB]2 [=EB]2 (AG) | F2 [=EG]2 [FA]2 [GB]2 | (cd) [Ee]2 [EF]2 [DF]2 | E6 |] %9
V:2
 x2 | x6 B,2 | x8 | x8 | x6 E x | x6 =E2 | F2 x6 | A2 x6 | E6 |] %9
V:3
 (G,A,) | [E,B,]2 [D,B,]2 [E,B,]2 [G,,B,]2 | [A,,C]2 [B,,B,]2 [E,B,]2 (B,C) | %3
 [D,B,]2 [C,B,]2 [F,B,]2 (B,=A,) | [B,,B,]6 ([G,B,][F,A,]) | [E,G,]2 [_D,F,]2 [C,G,]2 (CB,) | %6
 [A,C]2 [G,B,]2 [F,C]2 [E,_D]2 | [A,C]2 ([G,B,][A,C]) B,2 [B,,A,]2 | [E,G,]6 |] %9
V:4
 E,2 | x8 | x6 E,2 | x6 F,2 | x8 | x6 C2 | x8 | x4 B,2 x2 | x6 |] %9

